icons/Business/mail-unread-fill.svg

<svg viewBox="0 0 24 24" xmlns="http://www.w3.org/2000/svg"><path d="M18.8032 8.4928C19.4663 8.81764 20.2118 9 21 9C21.3425 9 21.6769 8.96557 22 8.89998V20C22 20.5523 21.5523 21 21 21H3C2.44772 21 2 20.5523 2 20V4C2 3.44772 2.44772 3 3 3H16.1C16.0344 3.32311 16 3.65753 16 4C16 5.23672 16.449 6.36857 17.1929 7.24142L12.0606 11.6829L5.64722 6.2377L4.35278 7.7623L12.0731 14.3171L18.8032 8.4928ZM21 7C19.3431 7 18 5.65685 18 4C18 2.34315 19.3431 1 21 1C22.6569 1 24 2.34315 24 4C24 5.65685 22.6569 7 21 7Z"/></svg>

<svg xmlns="http://www.w3.org/2000/svg" viewBox="0 0 24 24">
    <g>
        <path fill="none" d="M0 0h24v24H0z"/>
        <path d="M18.803 8.493A5.023 5.023 0 0 0 22 8.9V20a1 1 0 0 1-1 1H3a1 1 0 0 1-1-1V4a1 1 0 0 1 1-1h13.1c-.066.323-.1.658-.1 1a4.98 4.98 0 0 0 1.193 3.241l-5.132 4.442-6.414-5.445-1.294 1.524 7.72 6.555 6.73-5.824zM21 7a3 3 0 1 1 0-6 3 3 0 0 1 0 6z"/>
    </g>
</svg>
